svgs/sharp-solid/lock-hashtag.svg

<svg xmlns="http://www.w3.org/2000/svg" viewBox="0 0 448 512"><!--! Font Awesome Pro 6.6.0 by @fontawesome - https://fontawesome.com License - https://fontawesome.com/license (Commercial License) Copyright 2024 Fonticons, Inc. --><path d="M144 144l0 48 160 0 0-48c0-44.2-35.8-80-80-80s-80 35.8-80 80zM80 192l0-48C80 64.5 144.5 0 224 0s144 64.5 144 144l0 48 80 0 0 320L0 512 0 192l80 0zm112 48l-32 0 0 16 0 32-32 0-16 0 0 32 16 0 32 0 0 64-32 0-16 0 0 32 16 0 32 0 0 32 0 16 32 0 0-16 0-32 64 0 0 32 0 16 32 0 0-16 0-32 32 0 16 0 0-32-16 0-32 0 0-64 32 0 16 0 0-32-16 0-32 0 0-32 0-16-32 0 0 16 0 32-64 0 0-32 0-16zm0 144l0-64 64 0 0 64-64 0z"/></svg>

<svg xmlns="http://www.w3.org/2000/svg" viewBox="0 0 448 512"><!--! Font Awesome Pro 6.4.2 by @fontawesome - https://fontawesome.com License - https://fontawesome.com/license (Commercial License) Copyright 2023 Fonticons, Inc. --><path d="M144 144v48H304V144c0-44.2-35.8-80-80-80s-80 35.8-80 80zM80 192V144C80 64.5 144.5 0 224 0s144 64.5 144 144v48h80V512H0V192H80zm112 48H160v16 32H128 112v32h16 32v64H128 112v32h16 32v32 16h32V448 416h64v32 16h32V448 416h32 16V384H320 288V320h32 16V288H320 288V256 240H256v16 32H192V256 240zm0 144V320h64v64H192z"/></svg>
